icons/bridge.svg

<svg width="24" height="24" viewBox="0 0 24 24" fill="none" xmlns="http://www.w3.org/2000/svg">
<path fill-rule="evenodd" clip-rule="evenodd" d="M7.76077 7.08387C8.97289 7.08387 9.9043 7.56451 10.555 8.52581C11.2057 9.4871 11.5311 10.8322 11.5311 12.5613C11.5311 13.6194 11.3684 14.5613 11.0431 15.3871C10.7177 16.2129 10.252 16.8581 9.64593 17.3226C9.03987 17.7871 8.32217 18.0194 7.49282 18.0194C6.94418 18.0194 6.44338 17.9032 5.99043 17.671C5.53748 17.4387 5.15152 17.1161 4.83254 16.7032L4.67943 17.6903H2V3.32903L5.02392 3V8.45806C5.33015 8.03226 5.72249 7.69678 6.20096 7.45161C6.67943 7.20645 7.19936 7.08387 7.76077 7.08387ZM6.61244 15.7935C7.79905 15.7935 8.39234 14.7161 8.39234 12.5613C8.39234 11.3355 8.252 10.4903 7.97129 10.0258C7.69059 9.56129 7.2823 9.32903 6.74641 9.32903C6.07017 9.32903 5.49602 9.72903 5.02392 10.529V14.8065C5.21531 15.1161 5.44816 15.3581 5.72249 15.5323C5.99681 15.7065 6.29346 15.7935 6.61244 15.7935ZM12.4306 21V18.6H22V21H12.4306Z" fill="#3A3A47"/>
</svg>

<svg xmlns="http://www.w3.org/2000/svg" width="24" height="24" viewBox="0 0 24 24">
    <path fill="#3A3A47" fill-rule="evenodd" d="M7.76 7.084c1.213 0 2.144.48 2.795 1.442.65.961.976 2.306.976 4.035 0 1.058-.163 2-.488 2.826-.325.826-.791 1.471-1.397 1.936-.606.464-1.324.696-2.153.696-.549 0-1.05-.116-1.503-.348a3.423 3.423 0 0 1-1.157-.968l-.154.987H2V3.33L5.024 3v5.458A3.254 3.254 0 0 1 6.2 7.452a3.37 3.37 0 0 1 1.56-.368zm-1.148 8.71c1.187 0 1.78-1.078 1.78-3.233 0-1.226-.14-2.07-.42-2.535-.281-.465-.69-.697-1.226-.697-.676 0-1.25.4-1.722 1.2v4.277c.191.31.424.552.698.726.275.174.571.262.89.262zM12.431 21v-2.4H22V21h-9.57z"/>
</svg>
